!!!!SEGMENT: pl-wtm--r-1461--024_stefani-jozef--wszechstronne-cwiczenia-glosowe-andante-con-moto.krn
!!!cenid: 18xx:2201
!!!COM: Stefani, Józef
!!!COM-rismid: pe30024097
!!!CDT: 1800/04/16-1876/03/19
!!!CNT: Polish
!!!GTL: Wszechstronne ćwiczenia głosowe
!!!OTL: Andante con moto
!!!PDT:
!!!AGN: Secular
!!!SMS-siglum: PL-Wtm
!!!SMS-shelfmark: R 1461
!!!SMS-shelfwork: 024 G
!!!SMS-variant:
!!!SMS-altvar:
!!!NIFC-rismid: 1001120710
!!!URL-scan: http://repozytorium.nifc.pl/skany/pl-wtm-nut--r1461
!!!ONB-nifc: UWAGA: skan 0022, s. 41 – 0023, s. 42
!!!OMD: Andante con moto.
**kern	**kern	**kern	**text
*part2	*part2	*part1	*part1
*staff3	*staff2	*staff1	*staff1
*Iempty	*Iforte	*Itenor	*
*	*I"Fortepian	*I"Sopran/Tenor	*
*clefF4	*clefG2	*clefG2	*
*k[f#]	*k[f#]	*k[f#]	*
*C:	*C:	*C:	*
*M4/4	*M4/4	*M4/4	*
*met(c)	*met(c)	*met(c)	*
*all\right	*all\right	*all\right	*
=1	=1	=1	=1
8G 8GG\	8r	[8g/L	a
8r	8g 8d 8B/	32g/LL]	.
.	.	32a/	.
.	.	32g/	.
.	.	32a/JJJ	.
8G 8GG\	8r	[8g/L	.
8r	8g 8d 8B/	32g/LL]	.
.	.	32a/	.
.	.	32g/	.
.	.	32a/JJJ	.
8G 8GG\	8r	32g/LLL	.
.	.	32a/	.
.	.	32g/	.
.	.	32a/	.
8r	8g 8d 8B/	32g/	.
.	.	32a/	.
.	.	32g/	.
.	.	32a/JJJ	.
8G 8GG\	8r	32g/LLL	.
.	.	32a/	.
.	.	32g/	.
.	.	32a/	.
8r	8g 8d 8B/	32g/	.
.	.	32a/	.
.	.	32g/	.
.	.	32b/JJJ	.
=2	=2	=2	=2
.	.	16qqb/	.
8D 8DD/	8r	[8a/L	.
8r	8a 8f# 8d/	32a/LL]	.
.	.	32b/	.
.	.	32a/	.
.	.	32b/JJJ	.
8D 8DD/	8r	4a/	.
8r	8a 8f# 8d/	.	.
8D 8DD/	8r	2r	.
8D\L	8d/L	.	.
8F#\	8f#/	.	.
8A\J	8a/J	.	.
!!LO:LB:g=original
=3	=3	=3	=3
8D 8DD/	8r	[8a/L	.
8r	8a 8f# 8d/	32a/LL]	.
.	.	32b/	.
.	.	32a/	.
.	.	32b/JJJ	.
*rep	*rep	*	*
8D 8DD/	8r	[8a/L	.
8r	8a 8f# 8d/	32a/LL]	.
.	.	32b/	.
.	.	32a/	.
.	.	32b/JJJ	.
*Xrep	*Xrep	*	*
*rep	*rep	*	*
8D 8DD/	8r	32a/LLL	.
.	.	32b/	.
.	.	32a/	.
.	.	32b/	.
8r	8a 8f# 8d/	32a/	.
.	.	32b/	.
.	.	32a/	.
.	.	32b/JJJ	.
*Xrep	*Xrep	*	*
*rep	*rep	*	*
8D 8DD/	8r	32a/LLL	.
.	.	32b/	.
.	.	32a/	.
.	.	32b/	.
8r	8a 8f# 8d/	32a/	.
.	.	32b/	.
.	.	32a/	.
.	.	32cc/JJJ	.
*Xrep	*Xrep	*	*
=4	=4	=4	=4
.	.	16qqcc/	.
8G 8GG\	8r	[8b\L	.
8r	8b 8g 8d/	32b\LL]	.
.	.	32cc\	.
.	.	32b\	.
.	.	32cc\JJJ	.
8G 8GG\	8r	4b\	.
8r	8b 8g 8d/	.	.
8G 8GG\	8r	2r	.
8GG/L	8G/L	.	.
8BB/	8B/	.	.
8D/J	8d/J	.	.
!!LO:LB:g=original
=5	=5	=5	=5
8Fn 8FFn/	8r	[8b\L	.
8r	8b 8g 8d/	32b\LL]	.
.	.	32cc\	.
.	.	32b\	.
.	.	32cc\JJJ	.
*rep	*rep	*	*
8F 8FF/	8r	[8b\L	.
8r	8b 8g 8d/	32b\LL]	.
.	.	32cc\	.
.	.	32b\	.
.	.	32cc\JJJ	.
*Xrep	*Xrep	*	*
*rep	*rep	*	*
8F 8FF/	8r	32b\LLL	.
.	.	32cc\	.
.	.	32b\	.
.	.	32cc\	.
8r	8b 8g 8d/	32b\	.
.	.	32cc\	.
.	.	32b\	.
.	.	32cc\JJJ	.
*Xrep	*Xrep	*	*
*rep	*rep	*	*
8F 8FF/	8r	32b\LLL	.
.	.	32cc\	.
.	.	32b\	.
.	.	32cc\	.
8r	8b 8g 8d/	32b\	.
.	.	32cc\	.
.	.	32b\	.
.	.	32dd\JJJ	.
*Xrep	*Xrep	*	*
=6	=6	=6	=6
.	.	16qqdd/	.
8E 8EE/	8r	[8cc\L	.
8r	8cc 8g 8c/	32cc\LL]	.
.	.	32dd\	.
.	.	32cc\	.
.	.	32dd\JJJ	.
8E 8EE/	8r	4cc\	.
8r	8cc 8g 8c/	.	.
8E 8EE/	8r	2r	.
8c\L	8cc/L	.	.
8G\	8g/	.	.
8E\J	8e/J	.	.
!!LO:LB:g=original
=7	=7	=7	=7
8c 8C\	8r	[8cc\L	.
8r	8cc 8g 8e/	32cc\LL]	.
.	.	32dd\	.
.	.	32cc\	.
.	.	32dd\JJJ	.
*rep	*rep	*	*
8c 8C\	8r	[8cc\L	.
8r	8cc 8g 8e/	32cc\LL]	.
.	.	32dd\	.
.	.	32cc\	.
.	.	32dd\JJJ	.
*Xrep	*Xrep	*	*
*rep	*rep	*	*
8c 8C\	8r	32cc\LLL	.
.	.	32dd\	.
.	.	32cc\	.
.	.	32dd\	.
8r	8cc 8g 8e/	32cc\	.
.	.	32dd\	.
.	.	32cc\	.
.	.	32dd\JJJ	.
*Xrep	*Xrep	*	*
*rep	*rep	*	*
8c 8C\	8r	32cc\LLL	.
.	.	32dd\	.
.	.	32cc\	.
.	.	32dd\	.
8r	8cc 8g 8e/	32cc\	.
.	.	32dd\	.
.	.	32cc\	.
.	.	32ee\JJJ	.
*Xrep	*Xrep	*	*
=8	=8	=8	=8
.	.	16qqee/	.
8G 8GG\	8r	[8dd\L	.
8r	8dd 8b 8g/	32dd\LL]	.
.	.	32ee\	.
.	.	32dd\	.
.	.	32ee\JJJ	.
8G 8GG\	8r	4dd\	.
8r	8dd 8b 8g/	.	.
8G 8GG\	8r	2r	.
8G\L	8g/L	.	.
8D\	8d/	.	.
8BB\J	8B/J	.	.
!!LO:PB:g=original
=9	=9	=9	=9
8G 8GG\	8r	[8dd\L	.
8r	8dd 8b 8g/	32dd\LL]	.
.	.	32ee\	.
.	.	32dd\	.
.	.	32ee\JJJ	.
*rep	*rep	*	*
8G 8GG\	8r	[8dd\L	.
8r	8dd 8b 8g/	32dd\LL]	.
.	.	32ee\	.
.	.	32dd\	.
.	.	32ee\JJJ	.
*Xrep	*Xrep	*	*
*rep	*rep	*	*
8G 8GG\	8r	32dd\LLL	.
.	.	32ee\	.
.	.	32dd\	.
.	.	32ee\	.
8r	8dd 8b 8g/	32dd\	.
.	.	32ee\	.
.	.	32dd\	.
.	.	32ee\JJJ	.
*Xrep	*Xrep	*	*
*rep	*rep	*	*
8G 8GG\	8r	32dd\LLL	.
.	.	32ee\	.
.	.	32dd\	.
.	.	32ee\	.
8r	8dd 8b 8g/	32dd\	.
.	.	32ee\	.
.	.	32dd\	.
.	.	32ffn\JJJ	.
*Xrep	*Xrep	*	*
=10	=10	=10	=10
.	.	16qqffn/	.
8c 8C\	8r	[8ee\L	.
8r	8ee 8cc 8g\	32ee\LL]	.
.	.	32ff#\	.
.	.	32ee\	.
.	.	32ff#\JJJ	.
8c 8C\	8r	4ee\	.
8r	8ee 8cc 8g\	.	.
8c 8C\	8r	2r	.
8c\L	8cc/L	.	.
8G\	8g/	.	.
8E\J	8e/J	.	.
!!LO:LB:g=original
=11	=11	=11	=11
8C\	8r	[8ee\L	.
8rFF	8e 8c 8G</	32ee\LL]	.
.	.	32ffn\	.
.	.	32ee\	.
.	.	32ff\JJJ	.
*rep	*rep	*	*
8C 8CC/	8r	[8ee\L	.
8rFF	8e 8c 8G</	32ee\LL]	.
.	.	32ff\	.
.	.	32ee\	.
.	.	32ff\JJJ	.
*	*Xrep	*	*
*	*rep	*	*
8C 8CC/	8r	32ee\LLL	.
.	.	32ff\	.
.	.	32ee\	.
.	.	32ff\	.
8rFF	8e 8c 8G</	32ee\	.
.	.	32ff\	.
.	.	32ee\	.
.	.	32ff\JJJ	.
*ep	*Xrep	*	*
*	*rep	*	*
8C 8CC/	8r	32ee\LLL	.
.	.	32ff\	.
.	.	32ee\	.
.	.	32ff\	.
8rFF	8e 8c 8G</	32ee\	.
.	.	32ff\	.
.	.	32ee\	.
.	.	32gg\JJJ	.
*	*Xrep	*	*
=12	=12	=12	=12
.	.	16qqgg/	.
8A 8AA\	8r	[8ff#X\L	.
8r	8f#X 8c/	32ff#\LL]	.
.	.	32gg\	.
.	.	32ff#\	.
.	.	32gg\JJJ	.
8A 8AA\	8r	4ff#\	.
8r	8f# 8c/	.	.
8A 8AA\	8r	2r	.
8D\L	8d/L	.	.
8F#X\	8f#/	.	.
8A\J	8a/J	.	.
!!LO:LB:g=original
=13	=13	=13	=13
8D 8DD/	8r	[8ff#\L	.
8r	8f# 8d 8c 8A/	32ff#\LL]	.
.	.	32gg\	.
.	.	32ff#\	.
.	.	32gg\JJJ	.
*rep	*rep	*	*
8D 8DD/	8r	[8ff#\L	.
8r	8f# 8d 8c 8A/	32ff#\LL]	.
.	.	32gg\	.
.	.	32ff#\	.
.	.	32gg\JJJ	.
*Xrep	*Xrep	*	*
*rep	*rep	*	*
8D 8DD/	8r	32ff#\LLL	.
.	.	32gg\	.
.	.	32ff#\	.
.	.	32gg\	.
8r	8f# 8d 8c 8A/	32ff#\	.
.	.	32gg\	.
.	.	32ff#\	.
.	.	32gg\JJJ	.
*Xrep	*Xrep	*	*
*rep	*rep	*	*
8D 8DD/	8r	32ff#\LLL	.
.	.	32gg\	.
.	.	32ff#\	.
.	.	32gg\	.
8r	8f# 8d 8c 8A/	32ff#\	.
.	.	32gg\	.
.	.	32ff#\	.
.	.	32aa\JJJ	.
*Xrep	*Xrep	*	*
=14	=14	=14	=14
.	.	16qqaa/	.
8G 8GG\	8r	[8gg\L	.
8r	8g 8d 8B/	32gg\LL]	.
.	.	32aa\	.
.	.	32gg\	.
.	.	32aa\JJJ	.
4G 4GG;\	4g 4d 4B;/	4gg;\	.
2r	2r	2r	.
==	==	==	==
*-	*-	*-	*-
!!!system-decoration: <s1>{(s2,s3)}
!!!RDF**kern: > = above
!!!RDF**kern: < = below
!!!ENC: Andrzej Kubiczek
!!!END: 2021-06-04
!!!ENC: Tomasz Grochalski
!!!END: 2021-05-20
